X:1
T:Occho crudeli-O leggiadri
T:Giovanni Stefani
T:Source : Affetti amorosi-Canzonette ad una vove sola---Venetia---A.Vincenti---1621. Editor : André Vierendeels (10/11/15).
T:Notes  : Original clefs : C1, F4 Editorial accidentals above the staff Alfabetto et intavolatura per chitarra Spagnola Terza impressione (first print 1618)
C:Giovanni Stefani
%%score 1 { ( 2 3 ) | 4 }
L:1/8
Q:1/4=80
M:4/4
K:F
V:1 treble nm="Soprano" snm="S"
V:2 treble nm="BC" snm="BC"
V:3 treble 
V:4 bass 
V:1
 z4 G2 G2 | G4 ^F2 G2 | A4 AFGA | B4 B4 | z Bcd ef g2- | g2 c2 c4- | c2 B2 B4 | B4 z2 Bc | %8
w: O leg-|gia- dri'oc- chi|bel- li,- oc- chi miei|ca- ri,|vi- vi rag- gi del ciel|_ se- re-|* ni'e chia-|ri, poi che|
w: O se-|re- ne mie|lu- ci, O lu- ci'a-|ma- te,|tan- to cru- de'al mio cor|_ quan- to|_ bra- ma-|te, poi che|
w: O ce-|le- sti fa-|cel- le, o'ar- dor de|co- ri,|ve- ri'al- ber- ghi d'a- mor,|_ d'a- mor|_ te- so-|ri, se vi|
w: Lu- sin-|ghie- re pu-|pil- le, oc- chi fa-|ta- li,|deh miei pian- ti mi- ni-|* stri'e de|_ miei ma-|li, de mo-|
 d2 de f2 FG | A2 AB cccd | _e2 ee eeGA | B2 cB A4 | G4 G2 G2 | G2 ^FG A2 A2 | z B B4 BB | %15
w: tan- to bra- ma, poi che|tan- to bra- ma- te di ve-|der- mi lan gui- re, di ve-|der- mi mo- ri-|re, oc- chi|bel- li ch'a- do- ro,|mi- ra te che|
w: tan- to goi- te, poi- che|tan- to gio- i- te che nel|fo- co'ei si mo- ra, un che|v'a- ma'e v'a- do-|ra, ri- vol-|ge- te lo sguar- do,|mi- ra- te com'|
w: pia- ce mi- ra'te- se vi|pia- ce mi- ra- te,- un- a-|man- te fe- ri- to,- un a-|man- te tra- di-|to, deh mi-|ra- te'il mio co- re,|pia- ga- to d'a-|
w: stra- te- vi'ho- mai, de- mo-|stra- te- vi'ho- ma- i al mio|lun- go pe- na- re, al mio|gran la- cri- ma-|re, che son|fiu- mi cor- ren- ti,|que- st'oc- chi do-|
 B2 A2 B4 | z2 G2 G/A/B/c/ d/e/f/d/ | _e6 B2 | ABcB A4 | G8 |] %20
w: mo- * ro,|mi- ra- * * * * * * *|* te|che _ _ _ mo-|ro.|
w: ar- * do,|mi- ra- * * * * * * *|* te|com' _ _ _ ar-|do.|
w: mo- * re,|pia- ga- * * * * * * *|* to|d'a- * * * mo-|re.|
w: len- * ti,|que- st'oc- * * * * * * *|* chi|do- * * * len-|ti.|
V:2
 B8- | B4 d2 B2 | d4 A4 | B8 | d6 B2 | B4 A4- | A4 d4 | d4 B4 | B4 A4- | A4 G4- | G8 | G4 A4 | %12
 =B4 G2 A2 | B2 A2 ^F4 | G4 B4 | c4 B4 | B8 | c4 B4 | A2 G4 ^F2 | G8 |] %20
V:3
 D8- | D4 ^F2 G2 | ^F4 D4 | D8 | F6 G2 | G4 F4- | F4 F4 | F4 D4 | D4 F4- | F4 _E4- | E8 | %11
 D2 _E2 G2 ^F2 | D4 D4 | G2 D2 D4 | B,2 D2 G4 | F4 D4 | G8 | G4 D4 | F2 _E2 D4 | =B,8 |] %20
V:4
 G,,8 | G,,4 D,2 _E,2 | D,4 D,D,E,F, | G,4- G,F,G,A, | B,3 A, G,F, _E,2 | G,2 _E,2 F,4 | F,4 B,,4 | %7
 B,,4 B,,4 | B,,2 A,,G,, F,,4 | F,,2 D,2 C,4 | C,4 C,4 | G,,2 C,2 D,4 | G,,4 G,2 F,2 | %13
"^b" _E,2 D,E, D,4 | G,3 F, _E,4 | F,2 F,,2 B,,4 | _E,6 D,2 | C,4 G,,4 | D,2 C,2 D,4 | G,,8 |] %20

